dist/twitter.2fa3d31d.svg

<svg width="20" height="16" viewBox="0 0 20 16" fill="none" xmlns="http://www.w3.org/2000/svg">
<path d="M17.633 3.978C17.646 4.153 17.646 4.327 17.646 4.501C17.646 9.826 13.593 15.962 6.186 15.962C3.904 15.962 1.784 15.301 0 14.153C0.324 14.19 0.636 14.203 0.973 14.203C2.78599 14.2074 4.54765 13.6011 5.974 12.482C5.13342 12.4668 4.31858 12.1895 3.64324 11.6887C2.9679 11.188 2.46578 10.4889 2.207 9.689C2.456 9.726 2.706 9.751 2.968 9.751C3.329 9.751 3.692 9.701 4.029 9.614C3.11676 9.42981 2.29647 8.93535 1.70762 8.21469C1.11876 7.49402 0.797693 6.59165 0.799 5.661V5.611C1.336 5.91 1.959 6.097 2.619 6.122C2.06609 5.75459 1.61272 5.25602 1.29934 4.67079C0.98596 4.08556 0.822313 3.43186 0.823 2.768C0.823 2.02 1.022 1.334 1.371 0.736001C2.38314 1.98102 3.6455 2.99956 5.07634 3.72566C6.50717 4.45176 8.07456 4.86922 9.677 4.951C9.615 4.651 9.577 4.34 9.577 4.028C9.57674 3.49896 9.68075 2.97506 9.88308 2.48624C10.0854 1.99742 10.3821 1.55327 10.7562 1.17919C11.1303 0.805102 11.5744 0.508411 12.0632 0.306078C12.5521 0.103746 13.076 -0.000262379 13.605 4.97063e-07C14.765 4.97063e-07 15.812 0.486 16.548 1.272C17.4498 1.09762 18.3145 0.768422 19.104 0.299C18.8034 1.22982 18.1738 2.0191 17.333 2.519C18.1328 2.42778 18.9144 2.21745 19.652 1.895C19.1011 2.6981 18.4185 3.40235 17.633 3.978Z" fill="#C6CBCD"></path>
</svg>

<svg width="20" height="16" fill="none" xmlns="http://www.w3.org/2000/svg"><path d="M17.633 3.978c.013.175.013.349.013.523 0 5.325-4.053 11.461-11.46 11.461-2.282 0-4.402-.661-6.186-1.809.324.037.636.05.973.05a8.07 8.07 0 0 0 5.001-1.721 4.035 4.035 0 0 1-3.767-2.793c.249.037.499.062.761.062.361 0 .724-.05 1.061-.137a4.027 4.027 0 0 1-3.23-3.953v-.05c.537.299 1.16.486 1.82.511A4.022 4.022 0 0 1 .823 2.768c0-.748.199-1.434.548-2.032a11.457 11.457 0 0 0 8.306 4.215c-.062-.3-.1-.611-.1-.923A4.026 4.026 0 0 1 13.605 0c1.16 0 2.207.486 2.943 1.272a7.957 7.957 0 0 0 2.556-.973c-.3.93-.93 1.72-1.771 2.22a8.073 8.073 0 0 0 2.319-.624 8.646 8.646 0 0 1-2.019 2.083Z" fill="#C6CBCD"></path></svg>
